X:1
T:Highland Cathedral
T:Highland Cathedral
T:Ulrich Roever, Michael Korb
C:Ulrich Roever, Michael Korb
Z:All Rights Reserved
L:1/8
M:2/4
K:D
V:1 treble nm="Electric Piano"
%%MIDI program 4
V:1
|: z2 z A |"D" d3 e/f/ | ed Ad |"A" e3 f |"D" f4 | f3 g/a/ | gf ed |"A" e3 f | A4 |"G" B3 c/d/ | %10
"D" dA cd | a3"G" g |"D" f4 |"G" e3 f/g/ |"D" fd Ad |"A" e3 d |"D" d4 ||[K:A]"A" c3 A | e3 c/e/ | %19
 f3 c | c3 B |"D" A3 B/c/ |"E" B4 |"A" c3 d/e/ |"E" B4 | c3 A | e3 c/d/ | f3 c | c3 B | %29
"D" A3 B/c/ |"E" B3 A |"A" A4 | A4 |] %33

